resources/images/save.svg

<svg width="16" height="16" viewBox="0 0 16 16" fill="none" xmlns="http://www.w3.org/2000/svg">
<path d="M13.7398 5.84619L10.1538 2.26016C9.98676 2.09311 9.76084 2 9.52533 2H2.88864C2.39708 2 2 2.39845 2 2.88864V13.1114C2 13.6029 2.39845 14 2.88864 14H13.1114C13.6029 14 14 13.6016 14 13.1114V6.47467C14 6.23916 13.9055 6.01324 13.7398 5.84619ZM4.88909 2.88864H7.55637V4.44409H4.88909V2.88864ZM11.1109 13.1114H4.88909V11.1109H11.1109V13.1114ZM13.1114 13.1114H12.0009V10.6673C12.0009 10.4222 11.8024 10.2223 11.5559 10.2223H4.44409C4.19899 10.2223 3.99909 10.4208 3.99909 10.6673V13.1114H2.88864V2.88864H3.99909V4.88909C3.99909 5.13419 4.19763 5.33409 4.44409 5.33409H8C8.24509 5.33409 8.445 5.13555 8.445 4.88909V2.88864H9.52533L13.1114 6.47467V13.1114Z" fill="#262E30"/>
</svg>

<svg id="图层_1" data-name="图层 1" xmlns="http://www.w3.org/2000/svg" viewBox="0 0 16 16">
    <defs><style>.cls-1{fill:none;}.cls-2{fill:#2b3436;}</style></defs><title>Slice 41</title>
    <path fill="#2b3436" d="M13.74,5.85,10.15,2.26A.85.85,0,0,0,9.53,2H2.89A.89.89,0,0,0,2,2.89V13.11a.89.89,0,0,0,.89.89H13.11a.89.89,0,0,0,.89-.89V6.47A.85.85,0,0,0,13.74,5.85Zm-8.85-3H7.56V4.44H4.89V2.89Zm6.22,10.22H4.89v-2h6.22Zm2,0H12V10.67a.45.45,0,0,0-.44-.45H4.44a.45.45,0,0,0-.44.45v2.44H2.89V2.89H4v2a.44.44,0,0,0,.44.44H8a.43.43,0,0,0,.44-.44v-2H9.53l3.58,3.58v6.64Z"/>
</svg>
